src/lib/packages/icons/src/assets/line/envelope-eye.svg

<svg width="24" height="24" viewBox="0 0 24 24" fill="none" xmlns="http://www.w3.org/2000/svg">
<path d="M11.75 19C11.75 19.414 11.414 19.75 11 19.75H5C2.582 19.75 1.25 18.418 1.25 16V7C1.25 4.582 2.582 3.25 5 3.25H17C19.418 3.25 20.75 4.582 20.75 7V11C20.75 11.414 20.414 11.75 20 11.75C19.586 11.75 19.25 11.414 19.25 11V7C19.25 5.423 18.577 4.75 17 4.75H5C3.423 4.75 2.75 5.423 2.75 7V16C2.75 17.577 3.423 18.25 5 18.25H11C11.414 18.25 11.75 18.586 11.75 19ZM17.106 7.55901C16.863 7.22501 16.3951 7.149 16.0581 7.394L11.146 10.966C11.058 11.029 10.941 11.029 10.853 10.966L5.94092 7.394C5.60392 7.149 5.13607 7.22601 4.89307 7.55901C4.64907 7.89401 4.72311 8.36399 5.05811 8.60699L9.96997 12.179C10.278 12.403 10.639 12.515 10.999 12.515C11.359 12.515 11.7211 12.403 12.0281 12.179L16.9399 8.60699C17.2759 8.36299 17.351 7.89401 17.106 7.55901ZM22.4629 18.918C21.8339 19.976 20.418 21.75 18 21.75C15.582 21.75 14.1661 19.976 13.5371 18.918C13.1541 18.274 13.1541 17.476 13.5371 16.832C14.1661 15.774 15.582 14 18 14C20.418 14 21.8339 15.774 22.4629 16.832C22.8459 17.476 22.8459 18.274 22.4629 18.918ZM21.1741 17.6C20.7081 16.815 19.676 15.5 18 15.5C16.324 15.5 15.2919 16.815 14.8259 17.599C14.7239 17.77 14.7239 17.981 14.8259 18.151C15.2919 18.936 16.324 20.251 18 20.251C19.676 20.251 20.7081 18.936 21.1741 18.152C21.1741 18.152 21.1741 18.152 21.1741 18.151C21.2751 17.98 21.2751 17.77 21.1741 17.6ZM18.02 16.627H18.01C17.321 16.627 16.7671 17.186 16.7671 17.875C16.7671 18.564 17.331 19.123 18.019 19.123C18.708 19.123 19.2671 18.564 19.2671 17.875C19.2671 17.186 18.708 16.627 18.02 16.627Z" fill="currentColor"/>
</svg>

<svg xmlns="http://www.w3.org/2000/svg" width="24" height="24" fill="none"><path fill="currentColor" d="M11.75 19a.75.75 0 0 1-.75.75H5c-2.418 0-3.75-1.332-3.75-3.75V7c0-2.418 1.332-3.75 3.75-3.75h12c2.418 0 3.75 1.332 3.75 3.75v4a.75.75 0 0 1-1.5 0V7c0-1.577-.673-2.25-2.25-2.25H5c-1.577 0-2.25.673-2.25 2.25v9c0 1.577.673 2.25 2.25 2.25h6a.75.75 0 0 1 .75.75Zm5.356-11.441a.75.75 0 0 0-1.048-.165l-4.912 3.572a.25.25 0 0 1-.293 0L5.941 7.394a.75.75 0 0 0-.883 1.213l4.912 3.572a1.748 1.748 0 0 0 2.058 0l4.912-3.572a.748.748 0 0 0 .166-1.048Zm5.357 11.359c-.63 1.058-2.045 2.832-4.463 2.832s-3.834-1.774-4.463-2.832a2.037 2.037 0 0 1 0-2.086C14.167 15.774 15.582 14 18 14s3.834 1.774 4.463 2.832a2.037 2.037 0 0 1 0 2.086ZM21.174 17.6c-.466-.785-1.498-2.1-3.174-2.1s-2.708 1.315-3.174 2.099a.536.536 0 0 0 0 .552c.466.785 1.498 2.1 3.174 2.1s2.708-1.315 3.174-2.099v-.001a.539.539 0 0 0 0-.551Zm-3.154-.973h-.01c-.689 0-1.243.559-1.243 1.248s.564 1.248 1.252 1.248a1.248 1.248 0 0 0 .001-2.496Z"/></svg>
